src/shared/_assets/icons/document-text.svg

<svg width="16" height="20" viewBox="0 0 16 20" fill="none" xmlns="http://www.w3.org/2000/svg">
<path d="M4 16H12V14H4V16ZM4 12H12V10H4V12ZM2 20C1.45 20 0.979167 19.8042 0.5875 19.4125C0.195833 19.0208 0 18.55 0 18V2C0 1.45 0.195833 0.979167 0.5875 0.5875C0.979167 0.195833 1.45 0 2 0H10L16 6V18C16 18.55 15.8042 19.0208 15.4125 19.4125C15.0208 19.8042 14.55 20 14 20H2ZM9 7V2H2V18H14V7H9ZM2 2V7V2V7V18V2Z" fill="#98C95C"/>
</svg>

<svg xmlns="http://www.w3.org/2000/svg" fill="none" viewBox="0 0 16 20"><path fill="currentColor" d="M4 16h8v-2H4zm0-4h8v-2H4zm-2 8q-.824 0-1.412-.587A1.93 1.93 0 0 1 0 18V2Q0 1.176.588.588A1.93 1.93 0 0 1 2 0h8l6 6v12q0 .824-.588 1.413A1.93 1.93 0 0 1 14 20zM9 7V2H2v16h12V7zM2 2v5zv16z"/></svg>
